svgs/sharp-regular/chart-mixed-up-circle-dollar.svg

<svg xmlns="http://www.w3.org/2000/svg" viewBox="0 0 576 512"><!--! Font Awesome Pro 6.6.0 by @fontawesome - https://fontawesome.com License - https://fontawesome.com/license (Commercial License) Copyright 2024 Fonticons, Inc. --><path d="M384 0l24 0L520 0l24 0 0 24 0 112 0 24-48 0 0-24 0-54.1-1 .8-160 128-15.1 12.1-15-12.2L191.3 118.3l-137 101L34.9 233.6 6.4 194.9l19.3-14.2 152-112 15-11 14.4 11.7 113 91.8L461.6 48 408 48l-24 0 0-48zM200 264l-16 0 0 176 16 0 0-176zm-16-40l16 0 40 0 0 40 0 176 0 40-40 0-16 0-40 0 0-40 0-176 0-40 40 0zM72 360l-16 0 0 80 16 0 0-80zM56 320l16 0 40 0 0 40 0 80 0 40-40 0-16 0-40 0 0-40 0-80 0-40 40 0zm232 48a144 144 0 1 1 288 0 144 144 0 1 1 -288 0zm120.8-32.6c.6-.9 1.8-2.1 4.2-3.4c5.1-2.7 12.5-4.1 18.7-4c8.2 .1 17.1 1.8 26.4 4.1l15.5 3.9 7.7-31.1L465.9 301c-5.6-1.4-11.6-2.7-17.9-3.7l0-9.4 0-16-32 0 0 16 0 9.5c-6.1 1.2-12.3 3.2-18 6.3c-11.8 6.3-23 18.4-21.8 37.2c1 16 11.7 25.3 21.6 30.7c8.8 4.7 19.7 7.8 28.6 10.3l1.8 .5c10.3 2.9 17.9 5.2 23.2 8.3c4.5 2.7 4.7 4.2 4.7 5.6c.1 2.4-.5 3.7-1 4.5c-.6 1-1.8 2.2-4 3.3c-4.7 2.5-11.8 3.8-18.5 3.6c-9.5-.3-18.5-3.1-29.9-6.8c-1.9-.6-3.8-1.2-5.8-1.8l-15.3-4.8L372 425.2l15.3 4.8c1.6 .5 3.3 1 5 1.6c0 0 0 0 0 0s0 0 0 0c7 2.3 15.1 4.8 23.7 6.6l0 11.4 0 16 32 0 0-16 0-10.8c6.2-1.1 12.5-3.1 18.3-6.2c12.1-6.5 22.3-18.7 21.7-36.9c-.5-16.2-10.3-26.3-20.5-32.3c-9.4-5.6-21.2-8.9-30.5-11.5l-.2 0c-10.4-2.9-18.3-5.2-23.9-8.2c-4.8-2.6-4.8-4-4.8-4.5c0 0 0 0 0-.1c-.1-1.9 .3-2.9 .8-3.6z"/></svg>

<svg xmlns="http://www.w3.org/2000/svg" viewBox="0 0 576 512"><!--! Font Awesome Pro 6.4.0 by @fontawesome - https://fontawesome.com License - https://fontawesome.com/license (Commercial License) Copyright 2023 Fonticons, Inc. --><path d="M384 0h24H520h24V24 136v24H496V136 81.9l-1 .8-160 128-15.1 12.1-15-12.2L191.3 118.3l-137 101L34.9 233.6 6.4 194.9l19.3-14.2 152-112 15-11 14.4 11.7 113 91.8L461.6 48H408 384V0zM200 264H184V440h16V264zm-16-40h16 40v40V440v40H200 184 144V440 264 224h40zM72 360H56v80H72V360zM56 320H72h40v40 80 40H72 56 16V440 360 320H56zm232 48a144 144 0 1 1 288 0 144 144 0 1 1 -288 0zm120.8-32.6c.6-.9 1.8-2.1 4.2-3.4c5.1-2.7 12.5-4.1 18.7-4c8.2 .1 17.1 1.8 26.4 4.1l15.5 3.9 7.7-31.1L465.9 301c-5.6-1.4-11.6-2.7-17.9-3.7V288 272H416v16 9.5c-6.1 1.2-12.3 3.2-18 6.3c-11.8 6.3-23 18.4-21.8 37.2c1 16 11.7 25.3 21.6 30.7c8.8 4.7 19.7 7.8 28.6 10.3l1.8 .5c10.3 2.9 17.9 5.2 23.2 8.3c4.5 2.7 4.7 4.2 4.7 5.6c.1 2.4-.5 3.7-1 4.5c-.6 1-1.8 2.2-4 3.3c-4.7 2.5-11.8 3.8-18.5 3.6c-9.5-.3-18.5-3.1-29.9-6.8c-1.9-.6-3.8-1.2-5.8-1.8l-15.3-4.8L372 425.2l15.3 4.8c1.6 .5 3.3 1 5 1.6l0 0 0 0c7 2.3 15.1 4.8 23.7 6.6v11.4 16h32v-16V438.7c6.2-1.1 12.5-3.1 18.3-6.2c12.1-6.5 22.3-18.7 21.7-36.9c-.5-16.2-10.3-26.3-20.5-32.3c-9.4-5.6-21.2-8.9-30.5-11.5l-.2 0c-10.4-2.9-18.3-5.2-23.9-8.2c-4.8-2.6-4.8-4-4.8-4.5l0-.1c-.1-1.9 .3-2.9 .8-3.6z"/></svg>
